static/img/badge-lg-icon-size.svg

<svg width="114" height="56" viewBox="0 0 114 56" fill="none" xmlns="http://www.w3.org/2000/svg">
<rect x="12" y="12" width="90" height="32" rx="16" fill="#CBE2F9"/>
<path fill-rule="evenodd" clip-rule="evenodd" d="M38 23.5H26C25.7239 23.5 25.5 23.7239 25.5 24V32C25.5 32.2761 25.7239 32.5 26 32.5H38C38.2761 32.5 38.5 32.2761 38.5 32V24C38.5 23.7239 38.2761 23.5 38 23.5ZM26 22C24.8954 22 24 22.8954 24 24V32C24 33.1046 24.8954 34 26 34H38C39.1046 34 40 33.1046 40 32V24C40 22.8954 39.1046 22 38 22H26ZM31 30.25C31 29.8358 31.3358 29.5 31.75 29.5H36.25C36.6642 29.5 37 29.8358 37 30.25C37 30.6642 36.6642 31 36.25 31H31.75C31.3358 31 31 30.6642 31 30.25ZM28.2803 25.2197C27.9874 24.9268 27.5126 24.9268 27.2197 25.2197C26.9268 25.5126 26.9268 25.9874 27.2197 26.2803L28.9393 28L27.2197 29.7197C26.9268 30.0126 26.9268 30.4874 27.2197 30.7803C27.5126 31.0732 27.9874 31.0732 28.2803 30.7803L30.5303 28.5303L31.0607 28L30.5303 27.4697L28.2803 25.2197Z" fill="#1F75CB"/>
<path d="M45.0547 32V23.2695H46.6367L48.7871 28.7773C48.9863 29.2871 49.3438 30.4297 49.5488 31.1914H49.3027C49.5137 30.4766 49.8711 29.3105 50.0762 28.7773L52.1973 23.2695H53.7852V32H52.6895V27.0137C52.6895 26.293 52.7129 25.1152 52.7363 24.1367H52.8301C52.4961 25.2207 52.0742 26.4453 51.8516 27.0137L49.9004 32H48.9336L46.9531 27.0137C46.7363 26.4688 46.3438 25.2734 45.957 24.1367H46.0625C46.0859 25.0098 46.1152 26.2461 46.1152 27.0137V32H45.0547ZM58.5195 32.1406C56.6211 32.1406 55.4492 30.793 55.4492 28.7773C55.4492 26.7676 56.6094 25.3672 58.3965 25.3672C59.7852 25.3672 61.25 26.2227 61.25 28.6426V29.082H56.1641V28.1914H60.6816L60.1895 28.5195C60.1895 27.2305 59.5801 26.3047 58.3965 26.3047C57.2129 26.3047 56.5156 27.2832 56.5156 28.3496V28.9414C56.5156 30.4004 57.3242 31.2031 58.5254 31.2031C59.2988 31.2031 59.8789 30.8633 60.125 30.1953L61.1445 30.4766C60.8398 31.4668 59.8613 32.1406 58.5195 32.1406ZM65.2168 32.1406C63.582 32.1406 62.4453 30.8281 62.4453 28.7422C62.4453 26.668 63.5879 25.3672 65.2227 25.3672C66.5 25.3672 66.9043 26.1523 67.1211 26.498H67.2031V23.2695H68.2578V32H67.2383V30.9863H67.1211C66.9043 31.3496 66.4648 32.1406 65.2168 32.1406ZM65.375 31.1973C66.5645 31.1973 67.2148 30.1895 67.2148 28.7305C67.2148 27.2832 66.582 26.3105 65.375 26.3105C64.1328 26.3105 63.5176 27.3711 63.5176 28.7305C63.5176 30.1074 64.1504 31.1973 65.375 31.1973ZM70.1094 32V25.4492H71.1641V32H70.1094ZM70.6426 24.377C70.2441 24.377 69.9102 24.0664 69.9102 23.6797C69.9102 23.293 70.2441 22.9824 70.6426 22.9824C71.0469 22.9824 71.3809 23.293 71.3809 23.6797C71.3809 24.0664 71.0469 24.377 70.6426 24.377ZM75.2363 32.082C73.9121 32.082 73.0156 31.2676 73.0156 29.6094V25.4492H74.0703V29.5215C74.0703 30.5293 74.6387 31.1328 75.5527 31.1328C76.4902 31.1328 77.1992 30.4941 77.1992 29.375V25.4492H78.2598V32H77.2402V30.4121H77.3809C76.9766 31.6426 76.1973 32.082 75.2363 32.082ZM80.1172 32V25.4492H81.1426L81.1484 26.9141H81.0664C81.3301 25.8535 82.1328 25.332 82.9824 25.332C83.9316 25.332 84.5352 25.9766 84.7109 26.9258H84.5703C84.8047 25.9473 85.6719 25.332 86.7148 25.332C87.8516 25.332 88.7773 26.0645 88.7773 27.582V32H87.7168V27.6113C87.7168 26.668 87.1016 26.293 86.3984 26.293C85.5137 26.293 84.9746 26.8965 84.9746 27.7227V32H83.9199V27.5059C83.9199 26.7793 83.375 26.293 82.6367 26.293C81.8691 26.293 81.1719 26.832 81.1719 27.875V32H80.1172Z" fill="#0B5CAD"/>
</svg>

<svg xmlns="http://www.w3.org/2000/svg" width="114" height="56" fill="none" viewBox="0 0 114 56"><rect width="90" height="32" x="12" y="12" fill="#CBE2F9" rx="16"/><path fill="#1F75CB" fill-rule="evenodd" d="M38 23.5H26a.5.5 0 0 0-.5.5v8a.5.5 0 0 0 .5.5h12a.5.5 0 0 0 .5-.5v-8a.5.5 0 0 0-.5-.5ZM26 22a2 2 0 0 0-2 2v8a2 2 0 0 0 2 2h12a2 2 0 0 0 2-2v-8a2 2 0 0 0-2-2H26Zm5 8.25a.75.75 0 0 1 .75-.75h4.5a.75.75 0 0 1 0 1.5h-4.5a.75.75 0 0 1-.75-.75Zm-2.72-5.03a.75.75 0 1 0-1.06 1.06L28.94 28l-1.72 1.72a.75.75 0 1 0 1.06 1.06l2.25-2.25.53-.53-.53-.53-2.25-2.25Z" clip-rule="evenodd"/><path fill="#0B5CAD" d="M45.055 32v-8.73h1.582l2.15 5.507c.2.51.557 1.653.762 2.414h-.246c.21-.714.568-1.88.773-2.414l2.121-5.508h1.588V32H52.69v-4.986c0-.721.023-1.899.046-2.877h.094a49.995 49.995 0 0 1-.978 2.877L49.9 32h-.966l-1.98-4.986c-.218-.545-.61-1.74-.997-2.877h.105c.024.873.053 2.11.053 2.877V32h-1.06Zm13.465.14c-1.899 0-3.07-1.347-3.07-3.363 0-2.01 1.16-3.41 2.947-3.41 1.388 0 2.853.856 2.853 3.276v.439h-5.086v-.89h4.518l-.492.328c0-1.29-.61-2.215-1.793-2.215-1.184 0-1.881.978-1.881 2.045v.591c0 1.46.808 2.262 2.01 2.262.773 0 1.353-.34 1.599-1.008l1.02.282c-.305.99-1.284 1.664-2.626 1.664Zm6.697 0c-1.635 0-2.772-1.312-2.772-3.398 0-2.074 1.143-3.375 2.778-3.375 1.277 0 1.681.785 1.898 1.131h.082v-3.229h1.055V32h-1.02v-1.014h-.117c-.217.364-.656 1.155-1.904 1.155Zm.158-.943c1.19 0 1.84-1.008 1.84-2.466 0-1.448-.633-2.42-1.84-2.42-1.242 0-1.857 1.06-1.857 2.42 0 1.376.632 2.466 1.857 2.466Zm4.734.803v-6.55h1.055V32H70.11Zm.534-7.623c-.399 0-.733-.31-.733-.697 0-.387.334-.698.733-.698.404 0 .738.311.738.698 0 .386-.334.697-.738.697Zm4.593 7.705c-1.324 0-2.22-.814-2.22-2.473v-4.16h1.054v4.072c0 1.008.569 1.612 1.483 1.612.937 0 1.646-.639 1.646-1.758v-3.926h1.06V32H77.24v-1.588h.14c-.403 1.23-1.183 1.67-2.144 1.67ZM80.117 32v-6.55h1.026l.005 1.464h-.082c.264-1.06 1.067-1.582 1.916-1.582.95 0 1.553.645 1.729 1.594h-.14c.234-.979 1.1-1.594 2.144-1.594 1.137 0 2.062.732 2.062 2.25V32h-1.06v-4.389c0-.943-.615-1.318-1.319-1.318-.884 0-1.423.604-1.423 1.43V32H83.92v-4.494c0-.727-.545-1.213-1.283-1.213-.768 0-1.465.539-1.465 1.582V32h-1.055Z"/></svg>
